packages/kaspersky-hexa-ui-icons/src/iconsSVGs/16/ShieldCracked2.svg

<svg width="16" height="16" viewBox="0 0 16 16" fill="none" xmlns="http://www.w3.org/2000/svg">
<path fill-rule="evenodd" clip-rule="evenodd" d="M7.42285 1.08123C7.85721 0.918862 8.34371 0.945815 8.76074 1.16229L13.3711 3.55584C13.5861 3.66768 13.7216 3.88966 13.7217 4.13201V7.47772C13.7217 8.44251 13.6223 9.49348 13.1777 10.4631C12.3399 12.2901 11.1035 13.4519 10.0771 14.1554C9.56444 14.5068 9.10242 14.7458 8.76465 14.8976C8.59574 14.9736 8.45732 15.0282 8.3584 15.0646C8.30894 15.0828 8.26893 15.0961 8.24023 15.1056C8.18591 15.1237 8.13064 15.1391 8.07434 15.1457C8.02469 15.1515 7.97452 15.1515 7.9248 15.1457C7.84704 15.1306 7.79232 15.1193 7.66211 15.0763C7.56078 15.0429 7.41849 14.992 7.24609 14.9201C6.90173 14.7765 6.4316 14.5472 5.91113 14.1994C4.86727 13.5017 3.61946 12.326 2.78613 10.4191C2.37267 9.47296 2.27933 8.45662 2.2793 7.51971V4.13201C2.2794 3.88964 2.41488 3.66767 2.62988 3.55584L7.24023 1.16229L7.42285 1.08123ZM7.91797 2.28631L7.83887 2.31658L3.58008 4.52654V7.51971C3.58011 8.38552 3.66914 9.19291 3.97754 9.89861C4.69337 11.5366 5.75577 12.5315 6.63379 13.1183C7.07385 13.4124 7.46768 13.6034 7.74707 13.7199C7.84142 13.7592 7.92327 13.7876 7.98828 13.8107C8.05359 13.7851 8.13645 13.7548 8.23145 13.7121C8.51039 13.5867 8.9035 13.3843 9.34277 13.0832C10.2206 12.4815 11.2772 11.4889 11.9961 9.92107C12.3258 9.20189 12.4209 8.37075 12.4209 7.47772V4.52654L10.0117 3.27654L9.06934 5.60955L10.9209 7.34881C11.0897 7.50755 11.1597 7.7425 11.1104 7.96404L11.082 8.05779L10.2158 10.2892L10.1562 10.4064C9.99268 10.6606 9.66681 10.7738 9.37402 10.6603C9.03956 10.5303 8.87402 10.1531 9.00391 9.81853L9.71094 7.99529L7.85547 6.25311C7.66026 6.0695 7.59793 5.78485 7.69824 5.53631L8.85254 2.674L8.16211 2.31658C8.0863 2.27723 7.99919 2.26664 7.91797 2.28631Z" fill="black"/>
</svg>

<svg xmlns="http://www.w3.org/2000/svg" width="16" height="16" fill="none" viewBox="0 0 16 16"><path fill="#000" fill-rule="evenodd" d="M7.4229 1.0812a1.65 1.65 0 0 1 1.3378.081l4.6104 2.3936a.65.65 0 0 1 .3506.5762v3.3457c0 .9648-.0994 2.0158-.544 2.9854-.8378 1.827-2.0742 2.9888-3.1006 3.6923-.5127.3514-.9747.5904-1.3125.7422a6.3 6.3 0 0 1-.4062.167 4 4 0 0 1-.1182.041c-.0543.0181-.1096.0335-.1659.0401a.65.65 0 0 1-.1495 0c-.0778-.0151-.1325-.0264-.2627-.0694a5.8 5.8 0 0 1-.416-.1562c-.3444-.1436-.8145-.3729-1.335-.7207-1.0438-.6977-2.2916-1.8734-3.125-3.7803-.4134-.9461-.5068-1.9625-.5068-2.8994V4.132a.65.65 0 0 1 .3506-.5762l4.6103-2.3935zm.495 1.2051-.079.0303-4.2588 2.21v2.9931c0 .8658.089 1.6732.3974 2.379.7159 1.6379 1.7783 2.6328 2.6563 3.2196.44.2941.8339.4851 1.1133.6016.0943.0393.1762.0677.2412.0908.0653-.0256.1482-.0559.2432-.0986.2789-.1254.672-.3278 1.1113-.6289.8778-.6017 1.9344-1.5943 2.6533-3.1621.3297-.7192.4248-1.5503.4248-2.4434V4.5265l-2.4092-1.25-.9424 2.333 1.8516 1.7393a.651.651 0 0 1 .1895.6152l-.0284.0938-.8662 2.2314-.0596.1172a.6516.6516 0 0 1-.7822.2539c-.3344-.13-.5-.5072-.37-.8418l.707-1.8232L7.8554 6.253a.65.65 0 0 1-.1573-.7168L8.8525 2.674l-.6904-.3574a.352.352 0 0 0-.2441-.0303"/></svg>
